X:1
T:I Want to Love Him More
T:I Want to Love Him More
T:Willie York
T:W. M. York, 1922
T:Public Domain Courtesy of the Cyber Hymnal™
C:Willie York
Z:Public Domain
Z:Courtesy of the Cyber Hymnal™
%%score ( 1 2 ) ( 3 4 )
L:1/8
Q:1/4=110
M:4/4
K:Db
V:1 treble 
V:2 treble 
V:3 bass 
V:4 bass 
V:1
 [DA]2 | [Fd]2 [Fd]2 [Fd]2 [GB]2 | [FA]2 [DF]2 [FA]2 [Fd]2 | [Ec]3 [Fd] [Ge]3 [Ge] | [Fd]6 [FA]2 | %5
w: 1.~With|Je- sus I would|ev- er be, His|match- less name a-|dore; He’s|
w: 2.~He|died up- on the|cru- el tree, Our|load of guilt He|bore; He|
w: 3.~His|child- ren He will|not for- sake, When|trou- bles press them|sore; But|
w: 4.~O|Prince of life, sweet|Prince of peace, Who|dwelt on earth be-|low, My|
 [Fd]2 [Fd]2 [Fd]2 [GB]2 | [FA]2 [DF]2 [FA]2 [Fd]2 | [Ec]3 [Fd] [Ge]3 [Ge] | [Fd]6 || %9
w: done so ve- ry|much for me, I|want to love Him|more.|
w: suf- fered shame for|you and me, I|want to love Him|more.|
w: in their souls sweet|peace a- wakes, I|want to love Him|more.|
w: faith in Him will|nev- er cease, I|want to love Him|more.|
[Q:1/4=105]"^Refrain" [Af]2 | [Fd]>[Fd] [Fd]>[GB] [FA]2 [DF]2 | [FA]>[GB] [FA]>[DF] [FA]2 [Fd]2 | %12
w: |||
w: |||
w: |||
w: |||
 [Ec]>[Ec] [Ec]>[Fd] [Ge]2 [GA]2 | [Fd]>[FA] [Ad]>[Ae] !fermata![Af]2 [Af]2 | %14
w: ||
w: ||
w: ||
w: ||
 [Fd]>[Fd] [Fd]>[GB] [FA]2 [DF]2 | [FA]>[GB] [FA]>[DF] [FA]2 (de) | [Af]3 [Ad] [Af]2 [Ge]2 | d6 |] %18
w: ||||
w: ||||
w: ||||
w: ||||
V:2
 x2 | x8 | x8 | x8 | x8 | x8 | x8 | x8 | x6 || x2 | x8 | x8 | x8 | x8 | x8 | x6 A2 | x8 | %17
 (F2 G2 F2) |] %18
V:3
 [D,F,]2 | [D,A,]2 [D,A,]2 [D,A,]2 [D,D]2 | [D,D]2 [D,B,]2 [D,D]2 [D,A,]2 | A,3 A, A,3 A, | %4
w: |||I want to love|
 [D,A,]6 [D,D]2 | [D,A,]2 [D,A,]2 [D,A,]2 [D,D]2 | [D,D]2 [D,A,]2 [D,D]2 [D,A,]2 | A,3 A, A,3 A, | %8
w: |||Him more, I want|
 [D,A,]6 || [D,D]2 | [D,A,]>[D,A,] [D,A,]>[D,D] [D,D]2 [D,A,]2 | %11
w: |to|love Him more, I want to|
 [D,D]>[D,D] [D,D]>[D,A,] [D,D]2 [D,A,]2 | A,>A, A,>A, A,2 A,2 | %13
w: love Him more, I do, I|do, I do; I want to|
 [D,A,]>[D,D] [F,D]>[A,C] !fermata!D2 [D,D]2 | [D,A,]>[D,A,] [D,A,]>[D,D] [D,D]2 [D,A,]2 | %15
w: love Him more, I want to|love Him more, He’s done so|
 [D,D]>[D,D] [D,D]>[D,A,] [D,D]2 ([F,D][A,C]) | D3 [F,D] [A,D]2 [A,,A,]2 | (A,2 B,2 A,2) |] %18
w: much for me. * * * *|||
V:4
 x2 | x8 | x8 | A,3 A, A,3 A, | x8 | x8 | x8 | A,3 A, A,3 A, | x6 || x2 | x8 | x8 | %12
 A,>A, A,>A, A,2 A,2 | x4 D2 x2 | x8 | x8 | D3 x5 | D,6 |] %18

